src/images/svg/light-waves.svg

<svg
	width="100%"
	height="100%"
	id="svg"
	viewBox="0 0 1440 490"
	xmlns="http://www.w3.org/2000/svg"
	class="transition duration-300 ease-in-out delay-150"
>
	<style>
		.path-0 {
			animation: pathAnim-0 8s;
			animation-timing-function: linear;
			animation-iteration-count: infinite;
		}
		@keyframes pathAnim-0 {
			0% {
				d: path(
					'M 0,500 C 0,500 0,166 0,166 C 121.63636363636365,149.3492822966507 243.2727272727273,132.69856459330143 337,119 C 430.7272727272727,105.30143540669857 496.5454545454545,94.55502392344499 581,113 C 665.4545454545455,131.444976076555 768.5454545454545,179.0813397129187 856,195 C 943.4545454545455,210.9186602870813 1015.2727272727273,195.11961722488036 1110,185 C 1204.7272727272727,174.88038277511964 1322.3636363636365,170.44019138755982 1440,166 C 1440,166 1440,500 1440,500 Z'
				);
			}
			25% {
				d: path(
					'M 0,500 C 0,500 0,166 0,166 C 129.75119617224883,190.33492822966508 259.50239234449765,214.66985645933013 337,203 C 414.49760765550235,191.33014354066987 439.7416267942583,143.6555023923445 525,126 C 610.2583732057417,108.34449760765553 755.5311004784689,120.70813397129186 868,148 C 980.4688995215311,175.29186602870814 1060.1339712918661,217.51196172248802 1150,223 C 1239.8660287081339,228.48803827751198 1339.933014354067,197.244019138756 1440,166 C 1440,166 1440,500 1440,500 Z'
				);
			}
			50% {
				d: path(
					'M 0,500 C 0,500 0,166 0,166 C 83.36842105263162,161.17703349282294 166.73684210526324,156.35406698564591 261,138 C 355.26315789473676,119.64593301435409 460.42105263157885,87.76076555023926 561,111 C 661.5789473684212,134.23923444976074 757.578947368421,212.60287081339712 849,226 C 940.421052631579,239.39712918660288 1027.2631578947369,187.82775119617227 1125,167 C 1222.7368421052631,146.17224880382773 1331.3684210526317,156.08612440191388 1440,166 C 1440,166 1440,500 1440,500 Z'
				);
			}
			75% {
				d: path(
					'M 0,500 C 0,500 0,166 0,166 C 66.76555023923447,141.89473684210526 133.53110047846894,117.78947368421052 236,120 C 338.46889952153106,122.21052631578948 476.6411483253588,150.73684210526318 588,172 C 699.3588516746412,193.26315789473682 783.9043062200957,207.26315789473682 878,190 C 972.0956937799043,172.73684210526318 1075.7416267942583,124.21052631578948 1171,115 C 1266.2583732057417,105.78947368421052 1353.129186602871,135.89473684210526 1440,166 C 1440,166 1440,500 1440,500 Z'
				);
			}
			100% {
				d: path(
					'M 0,500 C 0,500 0,166 0,166 C 121.63636363636365,149.3492822966507 243.2727272727273,132.69856459330143 337,119 C 430.7272727272727,105.30143540669857 496.5454545454545,94.55502392344499 581,113 C 665.4545454545455,131.444976076555 768.5454545454545,179.0813397129187 856,195 C 943.4545454545455,210.9186602870813 1015.2727272727273,195.11961722488036 1110,185 C 1204.7272727272727,174.88038277511964 1322.3636363636365,170.44019138755982 1440,166 C 1440,166 1440,500 1440,500 Z'
				);
			}
		}
	</style>
	<defs>
		<linearGradient id="gradient" x1="50%" y1="100%" x2="50%" y2="0%">
			<stop offset="5%" stop-color="#003566"></stop>
			<stop offset="95%" stop-color="#537fa8"></stop>
		</linearGradient>
	</defs>
	<path
		d="M 0,500 C 0,500 0,166 0,166 C 121.63636363636365,149.3492822966507 243.2727272727273,132.69856459330143 337,119 C 430.7272727272727,105.30143540669857 496.5454545454545,94.55502392344499 581,113 C 665.4545454545455,131.444976076555 768.5454545454545,179.0813397129187 856,195 C 943.4545454545455,210.9186602870813 1015.2727272727273,195.11961722488036 1110,185 C 1204.7272727272727,174.88038277511964 1322.3636363636365,170.44019138755982 1440,166 C 1440,166 1440,500 1440,500 Z"
		stroke="none"
		stroke-width="0"
		fill="url(#gradient)"
		fill-opacity="0.53"
		class="transition-all duration-300 ease-in-out delay-150 path-0"
	></path>
	<style>
		.path-1 {
			animation: pathAnim-1 8s;
			animation-timing-function: linear;
			animation-iteration-count: infinite;
		}
		@keyframes pathAnim-1 {
			0% {
				d: path(
					'M 0,500 C 0,500 0,333 0,333 C 88.22009569377991,310.6555023923445 176.44019138755982,288.311004784689 271,292 C 365.5598086124402,295.688995215311 466.4593301435407,325.41148325358853 565,333 C 663.5406698564593,340.58851674641147 759.7224880382774,326.04306220095697 870,323 C 980.2775119617226,319.95693779904303 1104.6507177033493,328.4162679425837 1202,332 C 1299.3492822966507,335.5837320574163 1369.6746411483255,334.2918660287081 1440,333 C 1440,333 1440,500 1440,500 Z'
				);
			}
			25% {
				d: path(
					'M 0,500 C 0,500 0,333 0,333 C 116.07655502392345,341.51674641148327 232.1531100478469,350.0334928229665 322,340 C 411.8468899521531,329.9665071770335 475.46411483253587,301.38277511961724 553,311 C 630.5358851674641,320.61722488038276 721.9904306220095,368.4354066985646 833,381 C 944.0095693779905,393.5645933014354 1074.5741626794259,370.8755980861244 1179,357 C 1283.4258373205741,343.1244019138756 1361.712918660287,338.0622009569378 1440,333 C 1440,333 1440,500 1440,500 Z'
				);
			}
			50% {
				d: path(
					'M 0,500 C 0,500 0,333 0,333 C 127.77990430622009,320.4928229665072 255.55980861244018,307.9856459330144 340,294 C 424.4401913875598,280.0143540669856 465.5406698564593,264.55023923444975 554,290 C 642.4593301435407,315.44976076555025 778.2775119617224,381.81339712918657 881,389 C 983.7224880382776,396.18660287081343 1053.3492822966507,344.1961722488038 1141,325 C 1228.6507177033493,305.8038277511962 1334.3253588516745,319.4019138755981 1440,333 C 1440,333 1440,500 1440,500 Z'
				);
			}
			75% {
				d: path(
					'M 0,500 C 0,500 0,333 0,333 C 73.09090909090907,311.42105263157896 146.18181818181813,289.84210526315786 256,287 C 365.81818181818187,284.15789473684214 512.3636363636364,300.0526315789474 623,305 C 733.6363636363636,309.9473684210526 808.3636363636365,303.94736842105266 887,313 C 965.6363636363635,322.05263157894734 1048.1818181818182,346.15789473684214 1141,352 C 1233.8181818181818,357.84210526315786 1336.909090909091,345.42105263157896 1440,333 C 1440,333 1440,500 1440,500 Z'
				);
			}
			100% {
				d: path(
					'M 0,500 C 0,500 0,333 0,333 C 88.22009569377991,310.6555023923445 176.44019138755982,288.311004784689 271,292 C 365.5598086124402,295.688995215311 466.4593301435407,325.41148325358853 565,333 C 663.5406698564593,340.58851674641147 759.7224880382774,326.04306220095697 870,323 C 980.2775119617226,319.95693779904303 1104.6507177033493,328.4162679425837 1202,332 C 1299.3492822966507,335.5837320574163 1369.6746411483255,334.2918660287081 1440,333 C 1440,333 1440,500 1440,500 Z'
				);
			}
		}
	</style>
	<defs>
		<linearGradient id="gradient" x1="50%" y1="100%" x2="50%" y2="0%">
			<stop offset="5%" stop-color="#003566"></stop>
			<stop offset="95%" stop-color="#537fa8"></stop>
		</linearGradient>
	</defs>
	<path
		d="M 0,500 C 0,500 0,333 0,333 C 88.22009569377991,310.6555023923445 176.44019138755982,288.311004784689 271,292 C 365.5598086124402,295.688995215311 466.4593301435407,325.41148325358853 565,333 C 663.5406698564593,340.58851674641147 759.7224880382774,326.04306220095697 870,323 C 980.2775119617226,319.95693779904303 1104.6507177033493,328.4162679425837 1202,332 C 1299.3492822966507,335.5837320574163 1369.6746411483255,334.2918660287081 1440,333 C 1440,333 1440,500 1440,500 Z"
		stroke="none"
		stroke-width="0"
		fill="url(#gradient)"
		fill-opacity="1"
		class="transition-all duration-300 ease-in-out delay-150 path-1"
	></path>
</svg>

<svg width="100%" height="100%" id="prefix__svg" viewBox="0 0 1440 490" xmlns="http://www.w3.org/2000/svg" class="prefix__transition prefix__duration-300 prefix__ease-in-out prefix__delay-150"><style>@keyframes pathAnim-0{0%,to{d:path(&apos;M 0,500 C 0,500 0,166 0,166 C 121.63636363636365,149.3492822966507 243.2727272727273,132.69856459330143 337,119 C 430.7272727272727,105.30143540669857 496.5454545454545,94.55502392344499 581,113 C 665.4545454545455,131.444976076555 768.5454545454545,179.0813397129187 856,195 C 943.4545454545455,210.9186602870813 1015.2727272727273,195.11961722488036 1110,185 C 1204.7272727272727,174.88038277511964 1322.3636363636365,170.44019138755982 1440,166 C 1440,166 1440,500 1440,500 Z&apos;)}25%{d:path(&apos;M 0,500 C 0,500 0,166 0,166 C 129.75119617224883,190.33492822966508 259.50239234449765,214.66985645933013 337,203 C 414.49760765550235,191.33014354066987 439.7416267942583,143.6555023923445 525,126 C 610.2583732057417,108.34449760765553 755.5311004784689,120.70813397129186 868,148 C 980.4688995215311,175.29186602870814 1060.1339712918661,217.51196172248802 1150,223 C 1239.8660287081339,228.48803827751198 1339.933014354067,197.244019138756 1440,166 C 1440,166 1440,500 1440,500 Z&apos;)}50%{d:path(&apos;M 0,500 C 0,500 0,166 0,166 C 83.36842105263162,161.17703349282294 166.73684210526324,156.35406698564591 261,138 C 355.26315789473676,119.64593301435409 460.42105263157885,87.76076555023926 561,111 C 661.5789473684212,134.23923444976074 757.578947368421,212.60287081339712 849,226 C 940.421052631579,239.39712918660288 1027.2631578947369,187.82775119617227 1125,167 C 1222.7368421052631,146.17224880382773 1331.3684210526317,156.08612440191388 1440,166 C 1440,166 1440,500 1440,500 Z&apos;)}75%{d:path(&apos;M 0,500 C 0,500 0,166 0,166 C 66.76555023923447,141.89473684210526 133.53110047846894,117.78947368421052 236,120 C 338.46889952153106,122.21052631578948 476.6411483253588,150.73684210526318 588,172 C 699.3588516746412,193.26315789473682 783.9043062200957,207.26315789473682 878,190 C 972.0956937799043,172.73684210526318 1075.7416267942583,124.21052631578948 1171,115 C 1266.2583732057417,105.78947368421052 1353.129186602871,135.89473684210526 1440,166 C 1440,166 1440,500 1440,500 Z&apos;)}}</style><defs><linearGradient id="prefix__gradient" x1="50%" y1="100%" x2="50%" y2="0%"><stop offset="5%" stop-color="#003566"/><stop offset="95%" stop-color="#537fa8"/></linearGradient></defs><path d="M0 500V166c121.636-16.65 243.273-33.301 337-47 93.727-13.699 159.545-24.445 244-6 84.455 18.445 187.545 66.081 275 82 87.455 15.919 159.273.12 254-10s212.364-14.56 330-19v334z" stroke-width="0" fill="url(#prefix__gradient)" fill-opacity=".53" class="prefix__transition-all prefix__duration-300 prefix__ease-in-out prefix__delay-150" style="animation:pathAnim-0 8s;animation-timing-function:linear;animation-iteration-count:infinite"/><style>@keyframes pathAnim-1{0%,to{d:path(&apos;M 0,500 C 0,500 0,333 0,333 C 88.22009569377991,310.6555023923445 176.44019138755982,288.311004784689 271,292 C 365.5598086124402,295.688995215311 466.4593301435407,325.41148325358853 565,333 C 663.5406698564593,340.58851674641147 759.7224880382774,326.04306220095697 870,323 C 980.2775119617226,319.95693779904303 1104.6507177033493,328.4162679425837 1202,332 C 1299.3492822966507,335.5837320574163 1369.6746411483255,334.2918660287081 1440,333 C 1440,333 1440,500 1440,500 Z&apos;)}25%{d:path(&apos;M 0,500 C 0,500 0,333 0,333 C 116.07655502392345,341.51674641148327 232.1531100478469,350.0334928229665 322,340 C 411.8468899521531,329.9665071770335 475.46411483253587,301.38277511961724 553,311 C 630.5358851674641,320.61722488038276 721.9904306220095,368.4354066985646 833,381 C 944.0095693779905,393.5645933014354 1074.5741626794259,370.8755980861244 1179,357 C 1283.4258373205741,343.1244019138756 1361.712918660287,338.0622009569378 1440,333 C 1440,333 1440,500 1440,500 Z&apos;)}50%{d:path(&apos;M 0,500 C 0,500 0,333 0,333 C 127.77990430622009,320.4928229665072 255.55980861244018,307.9856459330144 340,294 C 424.4401913875598,280.0143540669856 465.5406698564593,264.55023923444975 554,290 C 642.4593301435407,315.44976076555025 778.2775119617224,381.81339712918657 881,389 C 983.7224880382776,396.18660287081343 1053.3492822966507,344.1961722488038 1141,325 C 1228.6507177033493,305.8038277511962 1334.3253588516745,319.4019138755981 1440,333 C 1440,333 1440,500 1440,500 Z&apos;)}75%{d:path(&apos;M 0,500 C 0,500 0,333 0,333 C 73.09090909090907,311.42105263157896 146.18181818181813,289.84210526315786 256,287 C 365.81818181818187,284.15789473684214 512.3636363636364,300.0526315789474 623,305 C 733.6363636363636,309.9473684210526 808.3636363636365,303.94736842105266 887,313 C 965.6363636363635,322.05263157894734 1048.1818181818182,346.15789473684214 1141,352 C 1233.8181818181818,357.84210526315786 1336.909090909091,345.42105263157896 1440,333 C 1440,333 1440,500 1440,500 Z&apos;)}}</style><defs><linearGradient id="prefix__gradient" x1="50%" y1="100%" x2="50%" y2="0%"><stop offset="5%" stop-color="#003566"/><stop offset="95%" stop-color="#537fa8"/></linearGradient></defs><path d="M0 500V333c88.22-22.344 176.44-44.689 271-41s195.46 33.411 294 41c98.54 7.589 194.722-6.957 305-10 110.278-3.043 234.65 5.416 332 9 97.35 3.584 167.675 2.292 238 1v167z" stroke-width="0" fill="url(#prefix__gradient)" class="prefix__transition-all prefix__duration-300 prefix__ease-in-out prefix__delay-150" style="animation:pathAnim-1 8s;animation-timing-function:linear;animation-iteration-count:infinite"/></svg>
